icons/op-delete-folder-24.svg

<svg width="24" height="24" viewBox="0 0 24 24" fill="none" xmlns="http://www.w3.org/2000/svg">
<path d="M13 15V14H19V9C19 8.4375 18.5625 8 18 8H12C11.4375 8 10.7188 7.65625 10.3438 7.25L9.90625 6.75C9.53125 6.34375 8.8125 6 8.25 6H5C4.4375 6 4 6.4375 4 7V17C4 17.5625 4.4375 18 5 18H13V15ZM14 17V15H20V17H14Z" fill="black"/>
</svg>

<svg xmlns="http://www.w3.org/2000/svg" width="24" height="24" viewBox="0 0 24 24"><path d="M13 15v-1h6V9c0-.562-.438-1-1-1h-6c-.562 0-1.281-.344-1.656-.75l-.438-.5C9.531 6.344 8.812 6 8.25 6H5c-.562 0-1 .438-1 1v10c0 .562.438 1 1 1h8v-3Zm1 2v-2h6v2h-6Z"/></svg>
